public/images/icon-dryer--leaf.svg

<svg width="21" height="24" viewBox="0 0 21 24" fill="none" xmlns="http://www.w3.org/2000/svg">
<path d="M21 0V24H0V0H21ZM10.5 7.5C6.75 7.5 3.75 10.5 3.75 14.25C3.75 18 6.75 21 10.5 21C14.25 21 17.25 18 17.25 14.25C17.25 10.5 14.25 7.5 10.5 7.5ZM3.375 4.5C3.375 5.10938 3.89062 5.625 4.5 5.625C5.10938 5.625 5.625 5.10938 5.625 4.5C5.625 3.89062 5.10938 3.375 4.5 3.375C3.89062 3.375 3.375 3.89062 3.375 4.5ZM9 3.375C8.39062 3.375 7.875 3.89062 7.875 4.5C7.875 5.10938 8.39062 5.625 9 5.625C9.60938 5.625 10.125 5.10938 10.125 4.5C10.125 3.89062 9.60938 3.375 9 3.375ZM8.01562 9.60938L9.375 10.9219C9.84375 11.4375 10.125 12.0938 10.125 12.75C10.125 13.4531 9.84375 14.0625 9.375 14.5781L8.95312 15C8.71875 15.1875 8.625 15.4688 8.625 15.75C8.625 16.0312 8.71875 16.3125 8.95312 16.5L10.2656 17.8594L9.23438 18.8906L7.875 17.5781C7.40625 17.0625 7.125 16.4531 7.125 15.75C7.125 15.0938 7.40625 14.4375 7.875 13.9219L8.29688 13.5C8.53125 13.3125 8.625 13.0312 8.625 12.75C8.625 12.4688 8.53125 12.1875 8.29688 12L6.98438 10.6406L8.01562 9.60938ZM13.125 10.9219C13.5938 11.4375 13.875 12.0938 13.875 12.75C13.875 13.4531 13.5938 14.0625 13.125 14.5781L12.7031 15C12.4688 15.1875 12.375 15.4688 12.375 15.75C12.375 16.0312 12.4688 16.3125 12.7031 16.5L14.0156 17.8594L12.9844 18.8906L11.625 17.5781C11.1562 17.0625 10.875 16.4531 10.875 15.75C10.875 15.0938 11.1562 14.4375 11.625 13.9219L12.0469 13.5C12.2812 13.3125 12.375 13.0312 12.375 12.75C12.375 12.4688 12.2812 12.1875 12.0469 12L10.7344 10.6406L11.7656 9.60938L13.125 10.9219Z" fill="#91C15D"/>
</svg>

<svg width="21" height="24" viewBox="0 0 21 24" fill="none" xmlns="http://www.w3.org/2000/svg"><path d="M21 0v24H0V0h21ZM10.5 7.5c-3.75 0-6.75 3-6.75 6.75S6.75 21 10.5 21s6.75-3 6.75-6.75-3-6.75-6.75-6.75Zm-7.125-3c0 .61.516 1.125 1.125 1.125A1.14 1.14 0 0 0 5.625 4.5 1.14 1.14 0 0 0 4.5 3.375 1.14 1.14 0 0 0 3.375 4.5ZM9 3.375A1.14 1.14 0 0 0 7.875 4.5c0 .61.516 1.125 1.125 1.125A1.14 1.14 0 0 0 10.125 4.5 1.14 1.14 0 0 0 9 3.375Zm-.984 6.234 1.359 1.313c.469.515.75 1.172.75 1.828 0 .703-.281 1.313-.75 1.828L8.953 15c-.234.188-.328.469-.328.75s.094.563.328.75l1.313 1.36-1.032 1.03-1.359-1.312c-.469-.515-.75-1.125-.75-1.828 0-.656.281-1.313.75-1.828l.422-.422c.234-.188.328-.469.328-.75s-.094-.563-.328-.75l-1.313-1.36 1.032-1.03Zm5.109 1.313c.469.515.75 1.172.75 1.828 0 .703-.281 1.313-.75 1.828l-.422.422c-.234.188-.328.469-.328.75s.094.563.328.75l1.313 1.36-1.032 1.03-1.359-1.312c-.469-.515-.75-1.125-.75-1.828 0-.656.281-1.313.75-1.828l.422-.422c.234-.188.328-.469.328-.75s-.094-.563-.328-.75l-1.313-1.36 1.032-1.03 1.359 1.312Z" fill="#91C15D"/></svg>
